X:1
T:Title
%%score { ( 1 3 ) | ( 2 4 ) }
L:1/8
M:4/4
K:Eb
V:1 treble nm="Grand Piano"
V:3 treble 
V:2 bass 
V:4 bass 
V:1
 z4 z[Q:1/4=108] B,CD | z4 z2 c2 | B4 z4 | [Ece]2 [E_Gce]2 [E=GBe]2 [FABdf]2 | %4
[M:5/8] [GBe]- [GBe]3 z |[M:3/8] B,CD |[M:4/4] z4 z2 c2 | B4 z4 | B4 z4 |[M:5/8] B- B3 z | %10
[M:3/8] B,CD |[M:4/4] z4 z2 c2 | B4 z4 | z2 d2 d2 z2 | BB/B/ BB BBB=B | c2 A2 z2 c2 | B2 B4 z2 | %17
 c2 A2 z2 c2 |[M:5/8] B2 B3 |[M:3/8] B,CD |[M:4/4] z4 z2 B2 | e4 e2 z2 | B2 z2 B2 D2 | %23
[M:5/8] [G,B,E]-[G,B,E]- [G,B,E]3 |[M:3/8] [EGB][EGc][B,EG] | %25
[M:4/4] [B,DA]2 [B,_DG]2 [B,=DA]2 [B,_DG]2 | [B,DA]2 [DA]2- [DA][ce][Bd][Ac] | %27
 [EGB]2 [E_G=A]2 [E=GB]2 [E_GA]2 | [GB]-[EG-B-][EG-B-][EG-B-] [EGB]GAG | %29
 .[B,DF]>=E .[B,DF]>E [DF]2 [FA]2 | .[DAc]2 [Ac]2- [DAc]e.[DBd]c | .[EGB]>=A .[EGB]>A .[EGB]D.EG | %32
 [GB]-[EG-B-][EG-B-][EG-B-] [EGB]BcG | A2 G2 A2 G2 | [B,DA]2 [DA]2- [DA][ce][Bd][Ac] | %35
 [EGB]2 [E_G=A]2 [E=GB]2 [E_GA]2 | [GB]-[EG-B-][EG-B-][EG-B-] [EGB]Bcd | %37
 [Ge]>[GB] [Ge]>[GB] [Ee]2 [A,E]2 | %38
[M:17/16] [_DGe]/-[DGe]/-[DGe]/-[DGe]/-[DGe]-<[DGe][CAe]3/2[Ee][Ed][Ec] | %39
[M:4/4] [EB]2 [FB]2 [GB]2 [Af]2 |[M:5/8] [Ge]-[Ge]- [Ge]3 |] %41
V:2
 z4 z B,,C,D, | z [G,B,] z [B,D] z [B,E] z E | z B,/B,/ z B, E,_D,C,B,, | %3
 [A,,A,]2 [=A,,=A,]2 [B,,B,]2 [B,,B,]2 |[M:5/8] [E,E]C,B,, G,,[E,,E,] |[M:3/8] B,,C,D, | %6
[M:4/4] z [G,B,] z [B,D] z [B,E] z E | z B,/B,/ z B, z E B,,2 | z B,/B,/ z B, z B, z D | %9
[M:5/8] z B,/B,/ z B,E, |[M:3/8] B,,C,D, |[M:4/4] z [G,B,] z [B,D] z [B,E] z E | %12
 z B,/B,/ z B, z B, [=E,,=E,]2 | z[K:treble] [B,D][DFB][DF] [EF=A][K:bass]F,,G,,=A,, | %14
 z B,/B,/ B,B, B,B,B,=B, | z B, z B, z B, z B, | z [B,E] z B, z B, z =B, | z B, z B, z B, z B, | %18
[M:5/8] z [B,E] z B,E, |[M:3/8] B,,C,D, |[M:4/4] z [G,B,] z [B,D] z B, z B, | %21
 [C,C]2 z [_DE] [CEA][CE] z C | z B,[K:treble] E>G[K:bass] z [B,DF][A,B,]A, | %23
[M:5/8] E,C,B,, G,,E,, |[M:3/8] E,E,E, |[M:4/4] F,2 =E,2 F,2 E,2 | z4 z B,3 | E,2 B,,2 E,2 B,,2 | %28
 E,B,,E,G, B,[K:treble]EFE | .B,,>_D .B,,>D .[B,,B,]2 .[B,,B,]2 | %30
 .B,,2 .B,,2 .B,,[K:treble]c[K:bass].B,,A | .E,>_G .B,,>G .E,B,.[B,,B,]E | %32
 E,B,,E,G, B,[K:treble]GGE | [F,B,D]2 [=E,B,_D]2 [F,B,=D]2 [E,B,_D]2 | z4 z B,3 | %35
 E,2 B,,2 E,2 B,,2 | E,B,,E,G, .B,2[K:treble] =A_A | [E,B,]2 [_D,B,]2 [C,A,]2 C,2 | %38
[M:17/16] B,,/-B,,/-B,,/-B,,/-B,,-<B,,A,,3/2[=A,,_G,][A,,G,][A,,G,] | %39
[M:4/4] [B,,G,]2 [B,,A,]2 [B,,B,]2 [B,,B,]2 |[M:5/8] [E,B,]-[E,B,]- [E,B,]3 |] %41
V:3
 x8 | EEFF GG z G | z [EG]/[EG]/ [B,EG][EG] [B,EG][EAe][EAe][GBe] | x8 |[M:5/8] z CB, G,[EGBe] | %5
[M:3/8] x3 |[M:4/4] EEFF GG z G | z [EG]/[EG]/ [B,EG][EG] [B,EG]GEc | %8
 z [DA]/[DA]/ [B,DA][DA] [B,D]D[B,DF][Ac] |[M:5/8] z [EG]/[EG]/[B,EG] [EG][B,G] |[M:3/8] x3 | %11
[M:4/4] EEFF GG z G | z [EG]/[EG]/ [B,EG][EG] [B,EG]G[B,_DGB][B,DG] | %13
 [B,DF]F z B z [EF=A] .[EFc]2 | x8 | [B,FA][FA][B,D]D [B,F]F[B,DA][DA] | %16
 [B,EG]G/G/ [B,EG][EG] [B,EG]B[B,B]=B | [B,FA][FA][B,DF][DF] [B,F]F[B,DA][DA] | %18
[M:5/8] [B,EG]G/G/[B,EG] [EG][B,EG] |[M:3/8] x3 |[M:4/4] EEFF G[EG][B,EG][EG] | %21
 [EA][EA][_DEG]G z A[CE_Gd][EGc] | [B,EG][EG] z2 [B,DFA]A z B, |[M:5/8] x5 |[M:3/8] x3 | %25
[M:4/4] x8 | z2 B,2 z4 | x8 | .E2 z2 z4 | x8 | z2 .D2 z4 | x8 | .E2 z2 z4 | x8 | z2 B,2 z4 | x8 | %36
 .E2 z2 z4 | x8 |[M:17/16] x17/2 |[M:4/4] x8 |[M:5/8] x5 |] %41
V:4
 x8 | E,2 B,,2 E,2 B,,2 | E,2 B,,2 z4 | x8 |[M:5/8] x5 |[M:3/8] x3 |[M:4/4] E,2 B,,2 E,2 B,,2 | %7
 E,2 B,,2 E,2 z2 | F,2 B,,2 F,2 B,,2 |[M:5/8] E,2 B,,2 z |[M:3/8] x3 |[M:4/4] E,2 B,,2 E,2 B,,2 | %12
 E,2 B,,2 E,2 z2 | [F,,F,]6[K:treble][K:bass] z2 | B,,6 z2 | D,2 B,,2 D,2 B,,2 | %16
 E,2 B,,2 E,2 B,,2 | D,2 B,,2 D,2 B,,2 |[M:5/8] E,2 B,,2 z |[M:3/8] x3 |[M:4/4] E,2 B,,2 E,2 _D,2 | %21
 z2 [B,,B,]2 [A,,A,]2 [=A,,=A,]2 | B,,2[K:treble] z2[K:bass] B,,4 |[M:5/8] x5 |[M:3/8] x3 | %25
[M:4/4] x8 | F,B,,D,F, .B,2 CD | x8 | x5[K:treble] x3 | x8 | x5[K:treble] x[K:bass] x2 | x8 | %32
 x5[K:treble] x3 | x8 | F,B,,D,F, .B,2 CD | x8 | x6[K:treble] x2 | x8 |[M:17/16] x17/2 | %39
[M:4/4] x8 |[M:5/8] x5 |] %41

